Papirus/64x64/apps/tracktion.svg

<?xml version="1.0" encoding="UTF-8" standalone="no"?>
<svg xmlns="http://www.w3.org/2000/svg" height="64" width="64" version="1">
 <path style="opacity:0.2;enable-background:new" d="m 58.866239,23.486346 c -0.03458,0.038 -0.05458,0.0874 -0.09374,0.121098 l -4.636732,4.070341 c 0.09026,0.603811 0.154018,1.210842 0.199217,1.824193 l 4.437535,-3.894543 c 0.486373,-0.418314 0.624011,-1.191383 0.308596,-1.749975 l -0.214837,-0.371094 z m -53.737218,0.004 -0.210937,0.367174 c -0.3154354,0.558592 -0.1778434,1.331661 0.3085956,1.749975 L 9.660415,29.501438 C 9.705614,28.887447 9.7732134,28.279456 9.8636121,27.675465 L 5.2268796,23.605524 c -0.0388,-0.032 -0.063399,-0.078 -0.097599,-0.115998 z m 4.5117343,8.511876 c -0.01666,0.332235 -0.039061,0.66171 -0.039061,0.999985 0,0.507413 0.022164,1.005186 0.058593,1.499979 L 9.8634041,34.326408 C 9.7486058,33.560419 9.6798068,32.786431 9.6406073,32.002442 Z m 44.7133497,0 c -0.03932,0.783869 -0.104139,1.558017 -0.218737,2.324166 l 0.199217,0.175778 c 0.03644,-0.494793 0.0625,-0.992546 0.0625,-1.499979 0,-0.338295 -0.0263,-0.66773 -0.04296,-0.999985 z M 5.128821,40.514098 c -0.3953943,0.433994 -0.5011927,1.117984 -0.210797,1.631976 l 5.601519,9.710859 c 0.324775,0.550792 1.055644,0.821708 1.660135,0.613271 l 5.820116,-1.969971 c 1.748794,1.399919 3.742745,2.541763 5.863114,3.370951 l 1.179663,5.992113 C 25.162369,60.490687 25.759361,60.9913 26.398032,61 l 11.199037,0 c 0.63865,-0.008 1.239622,-0.509313 1.35936,-1.136703 l 1.179663,-5.992113 c 2.120569,-0.829308 4.11434,-1.971132 5.863114,-3.370951 l 5.816316,1.968731 c 0.604471,0.208437 1.33926,-0.0624 1.664035,-0.613271 l 5.601519,-9.710859 c 0.290016,-0.513592 0.179797,-1.195122 -0.214837,-1.628876 l -5.386722,9.339664 c -0.324775,0.550872 -1.059564,0.821708 -1.664035,0.613271 l -5.819916,-1.969971 c -1.748794,1.39992 -3.742745,2.537763 -5.863114,3.367151 l -1.179663,5.995913 c -0.119998,0.625991 -0.71999,1.127983 -1.35998,1.135983 l -11.199037,0 c -0.641991,-0.01 -1.237982,-0.511992 -1.357981,-1.137983 l -1.177983,-5.995913 c -2.119969,-0.829988 -4.11394,-1.967971 -5.862714,-3.367951 l -5.820316,1.968731 c -0.604991,0.207997 -1.33578,-0.062 -1.660575,-0.613991 L 5.1236811,40.508998 Z"/>
 <path style="fill:#5f7c8a;enable-background:new" d="m 26.268713,4.0018439 c -0.593611,0.064599 -1.116483,0.550292 -1.224982,1.1374634 L 23.862528,11.13282 c -2.120569,0.829308 -4.11354,1.968731 -5.862314,3.368751 L 12.182698,12.5328 c -0.604491,-0.208437 -1.33768,0.0616 -1.662455,0.612491 L 4.920324,22.85755 c -0.3154354,0.558591 -0.1801974,1.33164 0.3062356,1.749954 l 4.6373325,4.068541 c -0.1631976,1.090924 -0.2624962,2.188568 -0.2624962,3.324951 0,1.136424 0.099199,2.233968 0.2624962,3.324952 l -4.6373325,4.068741 c -0.486373,0.418314 -0.621671,1.191363 -0.3062356,1.749954 l 5.599919,9.712259 c 0.324775,0.550792 1.057964,0.820908 1.662455,0.612471 l 5.818516,-1.968691 c 1.748794,1.399919 3.741745,2.539363 5.862314,3.368751 l 1.181203,5.993513 c 0.119798,0.627391 0.71757,1.128763 1.35622,1.137463 l 11.199638,0 c 0.63865,-0.008 1.236462,-0.510072 1.3562,-1.137463 l 1.181223,-5.993513 c 2.120569,-0.829308 4.11354,-1.968752 5.862314,-3.368751 l 5.818516,1.968691 c 0.604471,0.208437 1.33768,-0.0616 1.662455,-0.612471 l 5.599919,-9.712259 c 0.315415,-0.558591 0.180197,-1.33164 -0.306236,-1.749954 l -4.637332,-4.068741 c 0.163198,-1.090924 0.262476,-2.188368 0.262476,-3.324952 0,-1.136423 -0.0994,-2.233967 -0.262476,-3.324951 l 4.637332,-4.068541 c 0.486373,-0.418314 0.621651,-1.191363 0.306236,-1.749954 L 53.481297,13.145291 C 53.156522,12.594499 52.423313,12.324363 51.818842,12.5328 l -5.818516,1.968691 C 44.250352,13.100511 42.256381,11.961128 40.136412,11.13174 L 38.955189,5.1382273 c -0.119798,-0.6273908 -0.71755,-1.1287835 -1.3562,-1.1374634 l -11.199638,0 c -0.0438,-0.00102 -0.0876,-0.00102 -0.131198,0 z"/>
 <path d="m 20.000175,23.000349 0,7.999884 7.999884,0 0,15.999767 7.999882,0 0,-15.999767 7.999884,0 0,-7.999884 -23.999651,0 z" style="opacity:0.2;fill:#000000;fill-opacity:1"/>
 <path style="fill:#ffffff" d="m 20.000175,22.000349 0,7.999884 7.999884,0 0,15.999767 7.999882,0 0,-15.999767 7.999884,0 0,-7.999884 -23.999651,0 z"/>
 <path style="fill:#ffffff;enable-background:new;fill-opacity:1;opacity:0.2" d="M 26.267578 4 L 26.269531 4.0019531 C 25.67592 4.0665521 25.151468 4.5515005 25.042969 5.1386719 L 23.863281 11.132812 C 21.742712 11.96212 19.748774 13.101933 18 14.501953 L 12.183594 12.533203 C 11.579103 12.324766 10.844306 12.59364 10.519531 13.144531 L 4.9199219 22.857422 C 4.7185422 23.214036 4.7192707 23.651832 4.859375 24.035156 C 4.8818598 23.97623 4.8887067 23.9127 4.9199219 23.857422 L 10.519531 14.144531 C 10.844306 13.59364 11.579103 13.324766 12.183594 13.533203 L 18 15.501953 C 19.748774 14.101933 21.742712 12.96212 23.863281 12.132812 L 25.042969 6.1386719 C 25.151468 5.5515005 25.67592 5.0665521 26.269531 5.0019531 L 26.267578 5 C 26.311176 4.99898 26.354637 4.99898 26.398438 5 L 37.599609 5 C 38.238259 5.0086799 38.83528 5.5112811 38.955078 6.1386719 L 40.136719 12.130859 C 42.256688 12.960247 44.250026 14.100973 46 15.501953 L 51.818359 13.533203 C 52.42283 13.324766 53.155694 13.593739 53.480469 14.144531 L 59.082031 23.857422 C 59.113244 23.9127 59.120096 23.97623 59.142578 24.035156 C 59.28268 23.651832 59.283398 23.214036 59.082031 22.857422 L 53.480469 13.144531 C 53.155694 12.593739 52.42283 12.324766 51.818359 12.533203 L 46 14.501953 C 44.250026 13.100973 42.256688 11.960247 40.136719 11.130859 L 38.955078 5.1386719 C 38.83528 4.5112811 38.238259 4.0086799 37.599609 4 L 26.398438 4 C 26.354637 3.99898 26.311176 3.99898 26.267578 4 z M 54.244141 29.582031 L 54.136719 29.675781 C 54.275522 30.604379 54.354394 31.541969 54.378906 32.5 C 54.383165 32.332908 54.400391 32.170663 54.400391 32.001953 C 54.400391 31.178322 54.334965 30.377122 54.244141 29.582031 z M 9.7578125 29.583984 C 9.6670998 30.378483 9.6015625 31.178981 9.6015625 32.001953 C 9.6015625 32.170639 9.6187903 32.332921 9.6230469 32.5 C 9.6475395 31.541973 9.7243747 30.604328 9.8632812 29.675781 L 9.7578125 29.583984 z M 9.7578125 35.417969 L 5.2265625 39.394531 C 4.7883205 39.771449 4.6546557 40.430261 4.859375 40.966797 C 4.9387273 40.749693 5.0506988 40.545786 5.2265625 40.394531 L 9.8632812 36.326172 C 9.8182444 36.025282 9.7923619 35.720535 9.7578125 35.417969 z M 54.244141 35.419922 C 54.209644 35.721859 54.181638 36.025903 54.136719 36.326172 L 58.775391 40.394531 C 58.951276 40.545786 59.063229 40.749693 59.142578 40.966797 C 59.347295 40.430261 59.213687 39.771449 58.775391 39.394531 L 54.244141 35.419922 z"/>
</svg>

<?xml version="1.0" encoding="UTF-8" standalone="no"?>
<svg xmlns="http://www.w3.org/2000/svg" height="64" width="64" version="1">
 <path style="enable-background:new;fill:#5f7c8a" d="m26.269 4.0018c-.59361.064599-1.1165.55029-1.225 1.1375l-1.181 5.9937c-2.1206.82931-4.1135 1.9687-5.8623 3.3688l-5.818-1.969c-.60449-.20844-1.3377.0616-1.6625.61249l-5.5997 9.713c-.31544.55859-.18020 1.3316.30624 1.75l4.6373 4.0685c-.16320 1.0909-.26250 2.1886-.26250 3.325s.099199 2.234.26250 3.325l-4.6373 4.0687c-.48637.41831-.62167 1.1914-.30624 1.75l5.5999 9.7123c.32478.55079 1.058.82091 1.6625.61247l5.8185-1.9687c1.7488 1.3999 3.7417 2.5394 5.8623 3.3688l1.1812 5.9935c.11980.62739.71757 1.1288 1.3562 1.1375h11.2c.63865-.008 1.2365-.51007 1.3562-1.1375l1.1812-5.9935c2.1206-.82931 4.1135-1.9688 5.8623-3.3688l5.8185 1.9687c.60447.20844 1.3377-.0616 1.6625-.61247l5.5999-9.7123c.31542-.55859.18020-1.3316-.30624-1.75l-4.6373-4.0687c.16320-1.0909.26248-2.1884.26248-3.325 0-1.1364-.0994-2.234-.26248-3.325l4.6373-4.0685c.48637-.41831.62165-1.1914.30624-1.75l-5.597-9.711c-.324-.551-1.058-.821-1.662-.612l-5.8185 1.9687c-1.75-1.401-3.744-2.541-5.864-3.37l-1.181-5.9938c-.11980-.62739-.71755-1.1288-1.3562-1.1375h-11.2c-.0438-.00102-.0876-.00102-.13120 0z"/>
 <path style="opacity:.2;fill:#000000" d="m20 23v7.9999h7.9999v16h7.9999v-16h7.9999v-7.9999h-24z"/>
 <path style="fill:#ffffff" d="m20 22v7.9999h7.9999v16h7.9999v-16h7.9999v-7.9999h-24z"/>
 <path style="opacity:.1;enable-background:new;fill:#ffffff" d="m26.268 4l.002.0020c-.594.0646-1.119.5495-1.227 1.1367l-1.18 5.9943c-2.12.829-4.114 1.969-5.863 3.369l-5.816-1.969c-.605-.208-1.34.061-1.664.612l-5.6001 9.712c-.2014.357-.2006.795-.0605 1.178.0225-.059.0293-.122.0605-.178l5.6001-9.712c.324-.551 1.059-.820 1.664-.612l5.816 1.969c1.749-1.4 3.743-2.54 5.863-3.369l1.18-5.9943c.108-.5872.633-1.0721 1.227-1.1367l-.002-.0020c.043-.0010.087-.0010.130 0h11.202c.638.0087 1.235.5113 1.355 1.1387l1.182 5.9923c2.12.829 4.113 1.97 5.863 3.371l5.818-1.969c.605-.208 1.338.061 1.662.612l5.602 9.712c.031.056.038.119.061.178.140-.383.140-.821-.061-1.178l-5.602-9.712c-.324-.551-1.057-.820-1.662-.612l-5.818 1.969c-1.75-1.401-3.743-2.542-5.863-3.371l-1.182-5.9923c-.120-.6274-.717-1.13-1.355-1.1387h-11.202c-.043-.0010-.087-.0010-.130 0zm27.976 25.582l-.107.094c.139.928.217 1.866.242 2.824.004-.167.021-.329.021-.498 0-.824-.065-1.625-.156-2.42zm-44.486.002c-.0907.794-.1562 1.595-.1562 2.418 0 .169.0172.331.0214.498.0245-.958.1014-1.896.2403-2.824l-.1055-.092zm0 5.834l-4.5312 3.977c-.4383.376-.5719 1.035-.3672 1.572.0793-.217.1913-.421.3672-.572l4.6367-4.069c-.0451-.301-.0709-.605-.1055-.908zm44.486.002c-.034.302-.062.606-.107.906l4.638 4.069c.176.151.288.355.368.572.204-.537.071-1.196-.368-1.572l-4.531-3.975z"/>
 <path style="opacity:.2;enable-background:new" d="m4.8594 24.035c-.20512.53666-.071296 1.1952.36719 1.5723l4.5312 3.9766c.034573-.30292.060407-.60698.10547-.90820l-4.6367-4.069c-.1759-.151-.2879-.355-.3672-.572zm54.283 0c-.07935.21710-.19132.42101-.36719.57227l-4.6387 4.0684c.04494.30064.0729.60394.10742.90625l4.5312-3.9746c.43843-.37708.57229-1.0356.36719-1.5723zm-49.519 8.465c-.00432.16818-.021484.33215-.021484.50195 0 0.823.065528 1.6215.15625 2.416l.10547-.0918c-.1390-.928-.2158-1.868-.2403-2.826zm44.756 0c-.02449.95811-.10328 1.8976-.24219 2.8262l.10742.09375c.09083-.79505.15625-1.5942.15625-2.418 0-.16981-.01716-.33377-.02148-.50195zm-49.52 8.467c-.14011.38332-.14083.82112.060547 1.1777l5.5996 9.7129c.32478.55079 1.0596.81976 1.6641.61133l5.818-1.969c1.7488 1.3999 3.7408 2.5398 5.8613 3.3691l1.1816 5.9941c.120.628.717 1.128 1.355 1.137h11.201c.63865-.008 1.2357-.50933 1.3555-1.1367l1.1816-5.9941c2.121-.829 4.113-1.969 5.862-3.369l5.8184 1.9688c.60447.20844 1.3373-.06046 1.6621-.61133l5.6016-9.7129c.20137-.35661.20065-.79441.06055-1.1777-.02243.05868-.02945.12267-.06055.17773l-5.6016 9.7129c-.32478.55087-1.0576.81976-1.6621.61133l-5.818-1.969c-1.7488 1.4-3.7408 2.5398-5.8613 3.3691l-1.1816 5.9941c-.120.628-.717 1.129-1.355 1.137h-11.202c-.63865-.0087-1.2357-.50933-1.3555-1.1367l-1.1816-5.9941c-2.119-.829-4.111-1.969-5.86-3.369l-5.8184 1.9688c-.60449.20844-1.3393-.06054-1.6641-.61133l-5.6001-9.713c-.0311-.056-.0381-.120-.0605-.178z"/>
</svg>
